X:1
T:Sergeant Early's Dream
R:reel
M:C|
%%printtempo 0
Q:180
K:Ddor
cB|\
"Dm"A2DE "F"FAcA|"C"GECD "Am"~E3F|"Dm"DA,DE "F"FEFG|"C"Adde "Am"fedc|
"Dm"ADDE "F"FAcA|"C"GECD "Am"~E3F|"Dm"DA,DE "F"FAcA|"C"GF"Am"EF "Dm"D2:|
|:FG|\
"Dm"Addc ~d3e|f2ed "F"cAGF|"C"ECEG ~c3d|"Am"ecdc AcGc|
"Dm"Addc ~d3e|f2ed "F"cAGc|"C"AE~E2 "Am"cE~E2|CEGE "Dm"D2:|
